X:1
T:I Can't Make You Love me
T:I Can't Make You Love Me
C:Mike Reid
Z:All Rights Reserved
L:1/8
M:4/4
K:Bb
V:1 treble nm="Voice" snm="Vo."
%%MIDI program 0
V:1
"Eb" GFD"Gm9"F- F4 | FFF"Eb"F- F4 | G,B,F"Bb/D"F- F4 |"Gm7" FFF"Cm7"F F3 d/f/ |"Eb" gfd"Gm7"c- c4 | %5
w: |||||
w: |||||
 cd c/B/"Eb"G- G4 | GB d/f/"Bb/D"f- f3 A/G/ |"Cm7" F3 e d2 B2 | %8
w: |||
w: |||
"Eb""^VERSE 1" GF (D/C/)"Gm"(D/C/-) C4 | CD- D/B,/"Eb"G,- G,4 | G,B,F"Bb/D"F- F G3 | %11
w: |||
w: Turn down the _ lights _ _|turn down _ the bed _|turn down these voi- * ces|
"Gm7" D<DB,"Cm7"(C D) z2 z |"Eb" GFD"Gm7"D/C/- C4 | CD/B,/-B,"Eb"G,- G,4 | G,B,F"Bb/D"(F- F G3) | %15
w: ||||
w: in- side my head. _|Lay down with me, _ _|tell me no _ lies. _|Just hold me close, _ _|
"Gm7" D(D/C/ C/)B,/"Cm7"(C- C D3) |[M:2/4] z D- D/CB,/ |[M:4/4]"Bb/F" (D4- D/C/B,/G,<F,)F,/- | %18
w: |||
w: don't pa- * * tron- ize. _ _|Don't * pa- tron-|ize * * * * * me|
"F" F,2 z2"Bb/D" F/B/ A3 |:S"Eb""^CHORUS" G2 F"Bb"F/D/- D2 (D/C/)B,/(C/ | %20
w: ||
w: * Cause I can't|make you love me _ if * you don't|
"Eb" B,2 B,3/2) z/ z2 B<A | G2 F"Bb"F- F(D/C/ B,2) |"Bb/C" D<FF"Eb"G- G3/2 z2 z/ | %23
w: |||
w: _ _ You can't|make your heart _ feel _ _|some thing it won't *|
"Gm7" BAF"Bb/Eb"(D- D/C/B,B,>)B, |"F/A" GF- F/F/"Gm7"D (C<B,-B,)G/A/ | %25
w: ||
w: Here in the dark _ _ _ _ in|these fin- * al ho- urs * * I will|
 BAF"Bb/Eb"D- (D/C/B,-B,>)B, |"F/A" GF- F/F/"Gm7"D (C<B,-B,>)G, |"Cm7" D C3- C2 (G>D) | %28
w: |||
w: lay down my heart _ _ _ _ and|I'll feel _ the pow- er _ _ But|you won't * no, *|
"Bb/F" (D/C/)"F" C3- C>F G<A |"Eb" B2 A"Bb"F D4- |"Bb/Eb" D6 G,<D |"Eb""Gm7" D8!dacoda! ||1 %32
w: ||||
w: you _ won't _ 'Cause I can't|make you love me|_ if you|don't.|
"F" CDB,"Eb"G,- G,4 ||1 G,B,F"Bb/D"F F3 A/B/ ||"Cm7" G3 c' b4 :| %35
w: |||
w: |||
"Eb""^VERSE 2" GF (D/C/)"Gm"(D/C/-) C4 | CD- D/B,/"Eb"G,- G,4 | G,B,F"Bb/D"F- F G3 | %38
w: |||
w: I'll close my _ eyes, _ _|then I * wont see _|The love you don't _ feel|
"Gm7" D<DB,"Cm7"(C D) z2 z |"Eb" GFD"Gm7"D/C/- C4 | CD/B,/-B,"Eb"G,- G,4 | G,B,F"Bb/D"(F- F G3) | %42
w: ||||
w: when you're hold- ing me|Morn- ing will come * *|and I'll do what's right *|Just give me till then *|
"Gm7" D(D/C/ C/)B,/"Cm7"(C- C D3) | z z/ F/ G<A BBB(G/F/-) | %44
w: ||
w: to give up * this fight * *|and I will give up the fight. *|
"Bb/F""^Repeat chorus" F4 F/B/ A3!D.S.! :|2O"Eb" G,B,F"Bb/D"F- F4 ||"Eb" E2 G2 B2 e2 | %47
w: |||
w: * 'Cause I can't|||
!8va(! g2 b2 e'2 g'2!8va)! | b8 |] %49
w: ||
w: ||

